material/.icons/material/lightbulb-group-outline.svg

<svg xmlns="http://www.w3.org/2000/svg" viewBox="0 0 24 24"><path d="M7 19a2.93 2.93 0 00.17 1H6a1 1 0 01-1-1v-1h2m3 1a1 1 0 001 1h2a1 1 0 001-1v-1h-4m-6-2a1 1 0 001 1h2v-2.12A6.92 6.92 0 015 10a6.79 6.79 0 01.68-3A4 4 0 004 14.45M17 19a2.93 2.93 0 01-.17 1H18a1 1 0 001-1v-1h-2m0-8a5 5 0 01-2 4v2a1 1 0 01-1 1h-4a1 1 0 01-1-1v-2a5 5 0 118-4m-2 0a3 3 0 10-4 2.82V15h2v-2.18A3 3 0 0015 10m3.32-3a6.79 6.79 0 01.68 3 6.92 6.92 0 01-2 4.88V17h2a1 1 0 001-1v-1.55A4 4 0 0018.32 7z"/></svg>

<?xml version="1.0" encoding="UTF-8"?><!DOCTYPE svg PUBLIC "-//W3C//DTD SVG 1.1//EN" "http://www.w3.org/Graphics/SVG/1.1/DTD/svg11.dtd"><svg xmlns="http://www.w3.org/2000/svg" xmlns:xlink="http://www.w3.org/1999/xlink" version="1.1" id="mdi-lightbulb-group-outline" width="24" height="24" viewBox="0 0 24 24"><path d="M7 19A2.93 2.93 0 0 0 7.17 20H6A1 1 0 0 1 5 19V18H7M10 19A1 1 0 0 0 11 20H13A1 1 0 0 0 14 19V18H10M4 16A1 1 0 0 0 5 17H7V14.88A6.92 6.92 0 0 1 5 10A6.79 6.79 0 0 1 5.68 7A4 4 0 0 0 4 14.45M17 19A2.93 2.93 0 0 1 16.83 20H18A1 1 0 0 0 19 19V18H17M17 10A5 5 0 0 1 15 14V16A1 1 0 0 1 14 17H10A1 1 0 0 1 9 16V14A5 5 0 1 1 17 10M15 10A3 3 0 1 0 11 12.82V15H13V12.82A3 3 0 0 0 15 10M18.32 7A6.79 6.79 0 0 1 19 10A6.92 6.92 0 0 1 17 14.88V17H19A1 1 0 0 0 20 16V14.45A4 4 0 0 0 18.32 7Z" /></svg>
